X: 124
M: C
L: 1/8
K: Dm
c | Ad-de (fe)(dc) | cdef gece | defg (f/g/a) T(gf) | gece d/d/d (de) |
    fafa bagf | (e/f/g) (cg) ecge | fadf {f}edce | dAcE D/D/DD |]


